X:1
T:大提琴练习曲_Book1_P24_No.31
T:大提琴练习曲_Book1_P24_No.31
L:1/8
Q:1/4=80
M:6/8
K:C
V:1 bass nm="大提琴" snm="Vc."
V:1
!f! !tenuto!A,,!tenuto!C,!tenuto!E, !tenuto!A,!tenuto!C!tenuto!A, | %1
 !tenuto!F,!tenuto!A,!tenuto!F, !tenuto!C,!tenuto!E,!tenuto!C, |"_simile" A,,D,F, A,DA, | %3
 F,A,F, D,F,D, | A,,D,^G, B,DB, | ^G,B,G, D,G,D, | C,E,A, CA,E, | A,E,C, E,C,A,, | F,,A,,C, F,A,C | %9
 B,CA, F,C,A,, | E,,A,,C, E,A,C | B,CA, E,C,A,, | ^D,,A,,C, ^F,A,C | B,CA, ^F,C,A,, | %14
 D,,A,,C, ^F,A,C | B,CA, ^F,D,F, |"_cresc." G,B,D G,_B,D | ^F,A,D F,A,D | E,^G,B, DCB, | %19
 A,^G,!2!^F, E,F,G, |!ff! A,B,C G,A,C | ^F,A,C E,A,C |"_dim." D,^F,A, CB,A, | G,^F,E, D,E,F, | %24
!p! G,B,D F,B,D | E,G,C _E,G,C | D,F,A, CA,F, | D,F,G, B,G,F, | C,E,G, C,_E,G, | B,,D,G, _B,,D,G, | %30
"_cresc." A,,^C,E, G,E,D, | ^C,E,G, _B,A,G, | ^F,A,C G,A,C | ^F,A,C _E,A,C | D,^F,A, CA,G, | %35
 ^F,A,^C D=CA, |!f! _B,DB, A,CA, |"_dim." G,_B,G, F,A,F, | E,G,E, D,F,D, |!p! C,E,G, CD_B, | %40
 A,CA, G,_B,G, | F,A,F, E,G,E, | D,F,D, C,E,C, | _B,,D,F, _B,CA, | G,_B,G, F,A,F, | E,G,E, D,F,D, | %46
 ^C,E,C, B,,D,B,, |!mf! A,,^C,D, A,_B,G, | F,A,F, E,G,E, | D,F,D, C,E,C, | _B,,D,B,, A,,C,A,, | %51
 G,,_B,,G,, F,,A,,F,, |!p! E,,B,,D, E,D,B,, | C,E,A, CB,A, | ^G,B,D, F,E,D, | C,E,A,, C,B,,A,, | %56
"_cresc." D,,F,,_B,, D,C,B,, | ^D,,A,,B,, C,B,,A,, | E,,A,,C, E,A,C | DB,^G, E,D,B,, | %60
!f! A,,C,E, A,CA, | G,B,G, F,A,F, | E,G,E, D,F,D, | C,E,C, B,,D,B,, |!pp! A,,C,E, A,CA, | %65
 G,B,G, F,A,F, | E,G,E, D,F,D, | C,E,C, B,,D,B,, |"_cresc." A,,C,E, A,E,C, | A,,^C,E, G,E,C, | %70
 A,,D,^F, A,F,D, | A,,D,!2!F, !4!^G,!2!F,D, |!f! A,,^C,E, A,E,C, | A,,^C,E, G,E,C, | %74
 A,,D,E, ^F,E,D, | A,,D,E, F,E,D, |"_pesante" A,,C,E, A,CA, | E,A,E, C,E,C, | !fermata!A,,6 |] %79

